svgs/sharp-solid/square-question.svg

<svg xmlns="http://www.w3.org/2000/svg" viewBox="0 0 448 512"><!--! Font Awesome Pro 6.6.0 by @fontawesome - https://fontawesome.com License - https://fontawesome.com/license (Commercial License) Copyright 2024 Fonticons, Inc. --><path d="M448 32L0 32 0 480l448 0 0-448zM136 184c0-30.9 25.1-56 56-56l56.9 0c34.9 0 63.1 28.3 63.1 63.1c0 22.6-12.1 43.5-31.7 54.8L248 264.4l0 23.6-48 0 0-24 0-13.5 0-13.9 12.1-6.9 44.3-25.4c4.7-2.7 7.6-7.7 7.6-13.1c0-8.4-6.8-15.1-15.1-15.1L192 176c-4.4 0-8 3.6-8 8l0 6.5-48 0 0-6.5zm64 136l48 0 0 48-48 0 0-48z"/></svg>

<svg xmlns="http://www.w3.org/2000/svg" viewBox="0 0 448 512"><!--! Font Awesome Pro 6.4.0 by @fontawesome - https://fontawesome.com License - https://fontawesome.com/license (Commercial License) Copyright 2023 Fonticons, Inc. --><path d="M448 32H0V480H448V32zM136 184c0-30.9 25.1-56 56-56h56.9c34.9 0 63.1 28.3 63.1 63.1c0 22.6-12.1 43.5-31.7 54.8L248 264.4V288H200V264 250.5 236.6l12.1-6.9 44.3-25.4c4.7-2.7 7.6-7.7 7.6-13.1c0-8.4-6.8-15.1-15.1-15.1H192c-4.4 0-8 3.6-8 8l0 6.5-48 0V184zm64 136h48v48H200V320z"/></svg>
